images_elementary_svg/cmd/lc_managexmlsource.svg

<svg viewBox="0 0 24 24" xmlns="http://www.w3.org/2000/svg" xmlns:xlink="http://www.w3.org/1999/xlink"><linearGradient id="a" gradientUnits="userSpaceOnUse" x1="13.556" x2="13.152" y1="1.223" y2="22.018"><stop offset="0" stop-color="#737373"/><stop offset=".262" stop-color="#636363"/><stop offset=".705" stop-color="#4b4b4b"/><stop offset="1" stop-color="#3f3f3f"/></linearGradient><path d="m8.717 15.475-8.222-3.627v-1.184l8.222-4.107v1.987l-5.663 2.626 5.663 2.326zm7.676-10.425-4.513 12.106h-2.292l4.512-12.106zm.827 8.446 5.665-2.327-5.664-2.626v-1.986l8.224 4.107v1.184l-8.223 3.627z" fill="url(#a)" stroke="#000" stroke-linejoin="round" stroke-opacity=".49" stroke-width=".916" transform="scale(.92525 1.0808)"/></svg>

<svg xmlns="http://www.w3.org/2000/svg" xmlns:xlink="http://www.w3.org/1999/xlink" viewBox="0 0 24 24"><defs><linearGradient id="a"><stop offset="0" stop-color="#737373"/><stop offset=".262" stop-color="#636363"/><stop offset=".705" stop-color="#4b4b4b"/><stop offset="1" stop-color="#3f3f3f"/></linearGradient><linearGradient xlink:href="#a" id="b" x1="13.556" y1="1.223" x2="13.152" y2="22.018" gradientUnits="userSpaceOnUse"/></defs><g fill="url(#b)" stroke="#000" stroke-linejoin="round" stroke-width=".916" transform="scale(.92525 1.0808)" stroke-opacity=".49"><path d="M8.717 15.475L.495 11.848v-1.184l8.222-4.107v1.987L3.054 11.17l5.663 2.326zM16.393 5.05L11.88 17.156H9.588L14.1 5.05zM17.22 13.496l5.665-2.327-5.664-2.626V6.557l8.224 4.107v1.184l-8.223 3.627z"/></g></svg>
